www/static/img/overview/label.svg

<svg fill="none" height="49" viewBox="0 0 136 49" width="136" xmlns="http://www.w3.org/2000/svg"><path d="m4 17h128c1.657 0 3 1.3431 3 3v25c0 1.6569-1.343 3-3 3h-128c-1.65685 0-3-1.3431-3-3v-25c0-1.6569 1.34315-3 3-3z" fill="#fff" stroke="#005a7a" stroke-width="2"/><rect fill="#005a7a" height="10" rx="5" width="63"/></svg>

<svg width="136" height="49" viewBox="0 0 136 49" fill="none" xmlns="http://www.w3.org/2000/svg">
<path d="M4 17H132C133.657 17 135 18.3431 135 20V45C135 46.6569 133.657 48 132 48H4C2.34315 48 1 46.6569 1 45V20C1 18.3431 2.34315 17 4 17Z" fill="white" stroke="#005A7A" stroke-width="2"/>
<rect width="63" height="10" rx="5" fill="#005A7A"/>
</svg>
